brandFactory_export/1.Light/Proteger cuidar _1Light.svg

<?xml version="1.0" encoding="UTF-8"?>
<svg width="24px" height="24px" viewBox="0 0 24 24" version="1.1" xmlns="http://www.w3.org/2000/svg" xmlns:xlink="http://www.w3.org/1999/xlink">
    <title>1.Light/Proteger cuidar _1Light</title>
    <g id="Symbols" stroke="none" stroke-width="1" fill="none" fill-rule="evenodd">
        <g id="1.Light/Proteger-cuidar-_1Light" fill="#5CB615" fill-rule="nonzero">
            <path d="M22.3630252,16.010084 C22.3663866,15.9865546 22.6689076,11.9361345 22.6352941,10.6084034 C22.6285714,10.2252101 22.5243697,10.1815126 22.2621849,10.1647059 C21.9596639,10.1747899 21.8117647,10.3159664 21.7714286,10.5243697 L21.1361345,13.6235294 C21.1294118,13.6537815 21.112605,13.6806723 21.0991597,13.7109244 C21.1058824,13.9697479 21.0487395,14.2319328 20.9109244,14.4605042 L20.907563,14.4638655 L19.0218487,17.6571429 C18.9310924,17.8117647 18.7663866,17.8991597 18.6016807,17.8991597 C18.5142857,17.8991597 18.4268908,17.8789916 18.3495798,17.8319328 C18.1176471,17.6907563 18.0369748,17.3882353 18.1781513,17.1495798 L20.0638655,13.9596639 L20.0672269,13.9563025 L20.0672269,13.9529412 C20.1781513,13.7647059 20.0941176,13.4386555 19.9092437,13.3277311 C19.7378151,13.2201681 19.4957983,13.2201681 19.3747899,13.4184874 L19.2739496,13.5932773 C18.9714286,14.1344538 18.3394958,15.2638655 17.0756303,15.9159664 C17.0655462,15.9226891 16.7294118,16.1109244 16.1344538,16.8907563 C15.6235294,17.5563025 15.189916,18.3058824 14.8504202,19.1159664 L14.6016807,19.7142857 L18.5411765,19.7142857 C18.6151261,19.7142857 18.6857143,19.7243697 18.7563025,19.7378151 L21.0319328,17.7915966 C21.2,17.6470588 21.3815126,17.5092437 21.5596639,17.3747899 C21.7781513,17.210084 21.9394958,17.0151261 22.0907563,16.7630252 C22.2453782,16.4907563 22.3394958,16.2386555 22.3630252,16.010084 L22.3630252,16.010084 Z M19.0554622,22.1042017 L19.0554622,21.2336134 C19.0554622,20.9445378 18.8201681,20.7092437 18.5344538,20.7092437 L14.2991597,20.7092437 C14.0134454,20.7092437 13.7781513,20.9445378 13.7781513,21.2336134 L13.7781513,22.1042017 C13.7781513,22.3932773 14.0134454,22.6285714 14.2991597,22.6285714 L18.5344538,22.6285714 C18.8201681,22.6285714 19.0554622,22.3932773 19.0554622,22.1042017 Z M23.6201681,10.5848739 C23.6571429,11.9630252 23.3579832,15.9394958 23.3445378,16.107563 C23.3008403,16.4907563 23.1630252,16.8773109 22.9310924,17.2705882 C22.712605,17.6369748 22.4672269,17.9260504 22.1882353,18.1344538 C21.9798319,18.292437 21.8151261,18.4168067 21.6605042,18.5512605 L19.6705882,20.2521008 C19.8957983,20.5176471 20.0369748,20.8571429 20.0369748,21.2336134 L20.0369748,22.1042017 C20.0369748,22.9411765 19.3613445,23.6235294 18.5310924,23.6235294 L14.2957983,23.6235294 C13.4655462,23.6235294 12.789916,22.9411765 12.789916,22.1042017 L12.789916,21.2336134 C12.789916,20.7394958 13.0285714,20.302521 13.3915966,20.0268908 L13.9294118,18.7294118 C14.302521,17.8386555 14.7798319,17.0184874 15.3445378,16.2823529 C16.0907563,15.3109244 16.5478992,15.0655462 16.6352941,15.0285714 C17.6201681,14.5176471 18.1344538,13.6 18.4067227,13.1058824 L18.5277311,12.8941176 C18.9109244,12.2722689 19.707563,12.0907563 20.3630252,12.4605042 L20.8,10.3260504 C20.9411765,9.63697479 21.5327731,9.1697479 22.2319328,9.1697479 C22.7932773,9.2 23.5932773,9.42184874 23.6201681,10.5848739 L23.6201681,10.5848739 Z M9.84201681,22.1042017 L9.84201681,21.2336134 C9.84201681,20.9445378 9.61008403,20.7092437 9.3210084,20.7092437 L5.08571429,20.7092437 C4.8,20.7092437 4.56470588,20.9445378 4.56470588,21.2336134 L4.56470588,22.1042017 C4.56470588,22.3932773 4.79663866,22.6285714 5.08571429,22.6285714 L9.3210084,22.6285714 C9.61008403,22.6285714 9.84201681,22.3932773 9.84201681,22.1042017 Z M2.02352941,17.3411765 C2.23529412,17.502521 2.42016807,17.6436975 2.59831933,17.794958 L4.87394958,19.7411765 C4.94453782,19.7277311 5.01512605,19.7176471 5.08907563,19.7176471 L9.02857143,19.7176471 L8.77983193,19.1193277 C8.44369748,18.312605 8.01344538,17.5630252 7.49579832,16.8941176 C6.90084034,16.1142857 6.56134454,15.9226891 6.55798319,15.9226891 C5.2907563,15.2672269 4.65882353,14.1411765 4.35630252,13.6 L4.25210084,13.4218487 C4.13109244,13.2235294 3.89243697,13.2235294 3.71428571,13.3310924 C3.53277311,13.4420168 3.4487395,13.7680672 3.55966387,13.9563025 C3.56302521,13.9563025 3.56302521,13.9596639 3.56302521,13.9596639 L3.56638655,13.9630252 L5.4487395,17.1563025 C5.58991597,17.3915966 5.51260504,17.697479 5.27731092,17.8352941 C5.2,17.8823529 5.11260504,17.9058824 5.02857143,17.9058824 C4.8605042,17.9058824 4.69915966,17.8184874 4.60504202,17.6605042 L2.72268908,14.4705882 C2.72268908,14.4705882 2.71932773,14.4705882 2.71932773,14.4672269 C2.58487395,14.2352941 2.52773109,13.9731092 2.53109244,13.7142857 C2.5210084,13.6840336 2.50084034,13.6571429 2.49411765,13.6268908 L1.86218487,10.5310924 C1.81848739,10.312605 1.62016807,10.1714286 1.42184874,10.1647059 C1.08907563,10.1848739 1.00504202,10.2453782 0.994957983,10.6117647 C0.961344538,11.9428571 1.26386555,15.9932773 1.26722689,16.0336134 C1.29411765,16.2453782 1.38487395,16.497479 1.54621849,16.7630252 C1.68739496,17.0151261 1.85210084,17.2067227 2.02352941,17.3411765 L2.02352941,17.3411765 Z M10.2285714,20.0302521 C10.5915966,20.3058824 10.8302521,20.7428571 10.8302521,21.2369748 L10.8302521,22.107563 C10.8302521,22.9445378 10.1546218,23.6235294 9.32773109,23.6235294 L5.09243697,23.6235294 C4.26218487,23.6235294 3.58991597,22.9445378 3.58991597,22.107563 L3.58991597,21.2369748 C3.58991597,20.8605042 3.73109244,20.5210084 3.95630252,20.2554622 L1.96638655,18.5546218 C1.80504202,18.4168067 1.63361345,18.2857143 1.46554622,18.1579832 C1.16302521,17.9294118 0.91092437,17.6369748 0.699159664,17.2739496 C0.467226891,16.8840336 0.329411765,16.497479 0.28907563,16.1277311 C0.275630252,15.9428571 -0.0235294118,11.9663866 0.0100840336,10.5882353 C0.0369747899,9.42521008 0.83697479,9.20672269 1.31092437,9.17647059 C2.07058824,9.1394958 2.68235294,9.64033613 2.82352941,10.3294118 L3.2605042,12.4638655 C3.91596639,12.1008403 4.71260504,12.2789916 5.09243697,12.9008403 L5.21344538,13.112605 C5.48907563,13.6067227 6.00672269,14.5210084 7.00504202,15.0420168 C7.07226891,15.0722689 7.52941176,15.3176471 8.27563025,16.2890756 C8.84033613,17.0285714 9.31764706,17.8521008 9.68739496,18.7361345 L10.2285714,20.0302521 Z M11.8117647,13.8554622 C13.3445378,13.0890756 16.7394958,11.0588235 17.0420168,9.28739496 C17.3142857,7.70084034 17.3613445,4.2789916 17.3680672,2.9512605 C16.0840336,2.99159664 15.3109244,2.48067227 14.5579832,1.97647059 C13.8016807,1.47226891 13.0890756,0.994957983 11.8151261,0.994957983 L11.8084034,0.994957983 C10.5344538,0.994957983 9.82184874,1.47226891 9.06554622,1.97647059 C8.30252101,2.48739496 7.52268908,3.02857143 6.25546218,2.95798319 C6.26218487,4.29243697 6.31260504,7.70420168 6.58487395,9.28739496 C6.8907563,11.0588235 10.2789916,13.0890756 11.8117647,13.8554622 Z M18.0134454,9.46218487 C17.5495798,12.1546218 12.5882353,14.5915966 12.0235294,14.8605042 C11.9563025,14.8907563 11.8857143,14.907563 11.8151261,14.907563 C11.7445378,14.907563 11.6705882,14.8907563 11.6033613,14.8605042 C11.0386555,14.5915966 6.08403361,12.1546218 5.62016807,9.46218487 C5.2605042,7.39159664 5.27388451,2.61176471 5.27388451,2.41008403 C5.27388451,2.25546218 5.34453782,2.11428571 5.46554622,2.02016807 C5.58319328,1.92605042 5.73781513,1.89243697 5.88235294,1.92605042 C7.0789916,2.11428571 7.71764706,1.6907563 8.52436975,1.14957983 C9.33109244,0.611764706 10.2420168,0.00336134454 11.8117647,0.00336134454 L11.8184874,0.00336134454 C13.3882353,0.00336134454 14.2991597,0.61512605 15.1058824,1.15294118 C15.912605,1.6907563 16.5579832,2.11764706 17.7647059,1.92605042 C17.9092437,1.90588235 18.0638655,1.94285714 18.1714286,2.03697479 C18.2789916,2.12773109 18.3563025,2.26554622 18.3563025,2.41008403 C18.3529412,2.60840336 18.3663866,7.38823529 18.0134454,9.46218487 C18.0134454,9.45882353 18.0134454,9.45882353 18.0134454,9.46218487 Z M14.4168067,5.04201681 C14.6084034,4.84705882 14.9210084,4.84705882 15.112605,5.04201681 C15.3042017,5.23361345 15.3042017,5.54957983 15.112605,5.74453782 L11.0352941,9.86218487 C10.9411765,9.95630252 10.8134454,10.0067227 10.6890756,10.0067227 C10.5647059,10.0067227 10.4369748,9.95630252 10.3394958,9.86218487 L8.51092437,8.01344538 C8.31932773,7.82184874 8.31932773,7.50588235 8.51092437,7.31092437 C8.70252101,7.11932773 9.01512605,7.11932773 9.20672269,7.31092437 L10.6890756,8.80672269 L14.4168067,5.04201681 Z" id="Proteger-cuidar-_1Light"></path>
        </g>
    </g>
</svg>

<svg width="24" height="24" viewBox="0 0 24 24" xmlns="http://www.w3.org/2000/svg"><path d="M22.363 16.01c.003-.023.306-4.074.272-5.402-.006-.383-.11-.426-.373-.443-.302.01-.45.151-.49.36l-.636 3.099c-.007.03-.023.057-.037.087.007.259-.05.52-.188.75l-.003.003-1.886 3.193a.49.49 0 01-.672.175.5.5 0 01-.172-.682l1.886-3.19.003-.004v-.003c.111-.188.027-.514-.158-.625-.171-.108-.413-.108-.534.09l-.101.175c-.303.541-.935 1.67-2.198 2.323-.01.007-.347.195-.942.975-.51.665-.944 1.415-1.284 2.225l-.248.598h3.94c.073 0 .144.01.214.024l2.276-1.946c.168-.145.35-.283.528-.417.218-.165.38-.36.53-.612.155-.272.25-.524.273-.753zm-3.308 6.094v-.87a.524.524 0 00-.52-.525h-4.236a.524.524 0 00-.52.525v.87c0 .29.234.525.52.525h4.235a.524.524 0 00.521-.525zm4.565-11.52c.037 1.379-.262 5.355-.275 5.524-.044.383-.182.77-.414 1.163-.218.366-.464.655-.743.863-.208.158-.373.283-.527.417l-1.99 1.701c.225.266.366.605.366.982v.87c0 .837-.676 1.52-1.506 1.52h-4.235c-.83 0-1.506-.683-1.506-1.52v-.87c0-.495.239-.931.602-1.207l.537-1.298c.374-.89.85-1.71 1.416-2.447.746-.971 1.203-1.216 1.29-1.253.985-.511 1.5-1.429 1.772-1.923l.12-.212c.384-.622 1.18-.803 1.836-.433l.437-2.135a1.44 1.44 0 011.432-1.156c.561.03 1.361.252 1.388 1.415zM9.842 22.105v-.87a.522.522 0 00-.521-.525H5.086a.524.524 0 00-.521.525v.87c0 .29.232.525.52.525h4.236c.29 0 .521-.236.521-.525zm-7.818-4.763c.211.162.396.303.574.454l2.276 1.946a1.14 1.14 0 01.215-.023h3.94l-.25-.599a9.773 9.773 0 00-1.283-2.225c-.595-.78-.935-.971-.938-.971-1.267-.656-1.9-1.782-2.202-2.323l-.104-.178c-.12-.198-.36-.198-.538-.09-.181.11-.265.436-.154.624.003 0 .003.004.003.004l.003.003 1.883 3.193a.493.493 0 01-.42.75.492.492 0 01-.424-.245l-1.882-3.19s-.004 0-.004-.004a1.458 1.458 0 01-.188-.753c-.01-.03-.03-.057-.037-.087l-.632-3.096a.467.467 0 00-.44-.366c-.333.02-.417.08-.427.447-.034 1.33.269 5.381.272 5.422.027.211.118.463.28.729.14.252.305.444.477.578zm8.205 2.69c.363.275.601.712.601 1.206v.87c0 .838-.675 1.517-1.502 1.517H5.092a1.51 1.51 0 01-1.502-1.516v-.871c0-.376.141-.716.366-.982l-1.99-1.7a11.266 11.266 0 00-.5-.397 2.94 2.94 0 01-.767-.884c-.232-.39-.37-.777-.41-1.146-.013-.185-.313-4.162-.279-5.54.027-1.163.827-1.381 1.3-1.412a1.444 1.444 0 011.514 1.153l.437 2.135c.655-.363 1.452-.185 1.831.437l.121.212c.276.494.794 1.408 1.792 1.929.067.03.524.276 1.27 1.247a11.08 11.08 0 011.412 2.447l.542 1.294zm1.583-6.176c1.533-.766 4.927-2.796 5.23-4.568.272-1.586.32-5.008.326-6.336-1.284.04-2.057-.47-2.81-.975-.756-.504-1.469-.981-2.743-.981h-.007c-1.274 0-1.986.477-2.742.981-.763.511-1.543 1.053-2.81.982.006 1.334.057 4.746.329 6.33.306 1.77 3.694 3.801 5.227 4.567zm6.201-4.393c-.463 2.693-5.425 5.13-5.99 5.399a.509.509 0 01-.208.047.524.524 0 01-.212-.047c-.564-.27-5.519-2.706-5.983-5.399-.36-2.07-.346-6.85-.346-7.052a.49.49 0 01.192-.39c.117-.094.272-.128.416-.094 1.197.188 1.836-.235 2.642-.776C9.331.612 10.242.003 11.812.003h.006c1.57 0 2.481.612 3.288 1.15.807.538 1.452.965 2.659.773.144-.02.299.017.406.111.108.09.185.229.185.373-.003.198.01 4.978-.343 7.052 0-.003 0-.003 0 0zm-3.596-4.42a.487.487 0 01.696 0 .501.501 0 010 .703l-4.078 4.117a.495.495 0 01-.346.145.508.508 0 01-.35-.145L8.511 8.013a.501.501 0 010-.702.493.493 0 01.696 0l1.482 1.496 3.728-3.765z" fill="#5CB615" fill-rule="nonzero"/></svg>
